X:495
T:Lord Lyndoch
R:Strathspey
B:The Athole Collection
M:C
L:1/8
K:D
A|d>e d<B A>F D<F|E<B B>A G<B B>c|d>e d<B A>FD>F|
E>D E<F D/D/D D:|
g|f>da>d f>da>d|c>Ae>A c>de>g|f>da>d f>da>d|g<b a>g f<d d>g|
f>da>d f>da>d|c<Ae<A c>d e<A| B<dc<e d<fe<g|f<b a>g f<dd||

